docs/public/static/x/pro.svg

<svg width="24" height="18" viewBox="0 0 24 18" fill="none" xmlns="http://www.w3.org/2000/svg">
<g clip-path="url(#clip0)">
<path fill-rule="evenodd" clip-rule="evenodd" d="M20.7165 6.38435V10.3843L13.813 14.3843V18.3843L24.1683 12.3843V4.38437L20.7165 6.38435Z" fill="#00B7E9"/>
<path fill-rule="evenodd" clip-rule="evenodd" d="M6.90936 14.3843L13.813 18.3844V14.3843L6.90936 10.3843V14.3843Z" fill="#00C8FF"/>
<path fill-rule="evenodd" clip-rule="evenodd" d="M13.8129 6.38434L20.7165 10.3843L13.8129 14.3844L6.90939 10.3843L13.8129 6.38434Z" fill="#7CE3FF"/>
<path fill-rule="evenodd" clip-rule="evenodd" d="M13.8129 2.38435L20.7165 6.38432V10.3843L13.8129 6.38432V2.38435Z" fill="#00C8FF"/>
<path fill-rule="evenodd" clip-rule="evenodd" d="M13.813 2.38434L20.7165 6.38435L24.1683 4.38437L17.2647 0.384357L13.813 2.38434Z" fill="#7CE3FF"/>
<path fill-rule="evenodd" clip-rule="evenodd" d="M0 9.49047V13.4904L3.4518 15.4905V11.4905L0 9.49047Z" fill="#00C8FF"/>
<path fill-rule="evenodd" clip-rule="evenodd" d="M13.8071 5.49049V9.49046L3.45178 15.4905V11.4905L13.8071 5.49049Z" fill="#00B7E9"/>
<path fill-rule="evenodd" clip-rule="evenodd" d="M10.3554 3.49048L0 9.49047L3.4518 11.4905L13.8072 5.49051L10.3554 3.49048Z" fill="#7CE3FF"/>
</g>
<defs>
<clipPath id="clip0">
<rect width="24" height="18" fill="white"/>
</clipPath>
</defs>
</svg>

<svg width="24" height="18" fill="none" xmlns="http://www.w3.org/2000/svg"><g clip-path="url(#clip0)" fill-rule="evenodd" clip-rule="evenodd"><path d="M20.72 6.38v4l-6.9 4v4l10.35-6v-8l-3.45 2z" fill="#00B7E9"/><path d="M6.9 14.38l6.91 4v-4l-6.9-4v4z" fill="#00C8FF"/><path d="M13.81 6.38l6.9 4-6.9 4-6.9-4 6.9-4z" fill="#7CE3FF"/><path d="M13.81 2.38l6.9 4v4l-6.9-4v-4z" fill="#00C8FF"/><path d="M13.81 2.38l6.9 4 3.46-2-6.9-4-3.46 2z" fill="#7CE3FF"/><path d="M0 9.49v4l3.45 2v-4L0 9.5z" fill="#00C8FF"/><path d="M13.8 5.49v4l-10.35 6v-4l10.36-6z" fill="#00B7E9"/><path d="M10.36 3.49L0 9.49l3.45 2 10.36-6-3.45-2z" fill="#7CE3FF"/></g><defs><clipPath id="clip0"><path fill="#fff" d="M0 0h24v18H0z"/></clipPath></defs></svg>
